!!!COM: Music21
!!!OTL: polka_Yannicks-Gavotte
!!!OMV: polka_Yannicks-Gavotte
**kern
*clefG2
*k[f#]
*G:
*M2/4
=1
16gLL
16b
16a
16gJJ
=
16aLL
16b
16g
16ddJJ
4ryy
=
16ccLL
16b
16cc
16ee-XJJ
4ryy
=
16ddLL
16cc
16b
16aJJ
4ryy
=
16gLL
16b
16a
16gJJ
4ryy
=
16aLL
16b
16g
16dJJ
4ryy
=
16eLL
16g
16cc
16eJJ
4ryy
!!linebreak:original
=
16f#LL
16a
16dd
16aJJ
4ryy
=
16gLL
16b
16a
16ccJJ
4ryy
=
32bLLL
32ccJ
16dd
16g
16ddJJ
4ryy
=
16ccLL
16dd
16ee
16ff#JJ
4ryy
=
16ggLL
16ee
16dd
16bJJ
4ryy
=
16gLL
16b
16a
16ccJJ
4ryy
=
32bLLL
32ccJ
16dd
16g
16ddJJ
4ryy
!!linebreak:original
=
16ccLL
16dd
16ee
16ff#JJ
4ryy
=
16ggLL
16dd
16ff#
16aaJJ
4ryy
=
8ggL
16ff#L
16eeJJ
4ryy
=
16ddLL
16cc
16b
[16ggJJ
4ryy
=
16ggLL]
16gg
16ff#
16eeJJ
4ryy
=
16ddLL
16ee-XJ
8ddJ
4ryy
=
8ggL
16ff#L
16eeJJ
4ryy
=
16ddLL
16cc
16b
32eeL
32ff#JJJ
4ryy
!!linebreak:original
=
16ggLL
16aa
16gg
16ff#JJ
4ryy
=
16ddLL
16ee-XJ
8ddJ
4ryy
=
16bLL
16g
16cc
16ddJJ
4ryy
=
16gLL
16b
16a
32bL
32ccJJJ
4ryy
=
16ddLL
16g
16cc
16bJJ
4ryy
=
8aL
16aL
16gJJ
4ryy
=
8bL
16ccL
16ddJJ
4ryy
=
16gLL
16b
16a
32bL
32ccJJJ
4ryy
!!linebreak:original
=
16ddLL
16g
32bL
32a
32g
32f#JJJ
4ryy
=
8gL
8gJ
4ryy
=
*-
